X:1
T:Knäckebrödhultvalsen
R:Vals
C:Mikael Frisk
O:Malmö
Z:Åke Persson, 2015-05-27
M:3/4
L:1/4
K:A
|: A B c | A B c | d c B | d c B | A B c | A B c | 
d c B | A3  :|[L:1/8]|: e2 ee ee | A2 AA AA | d2 dd dd | 
A2 AA AA | c2 cc cc | A2 AA AA | B2 A2 B2 | A3 :|

